src/icons/folder-python-open.svg

<svg clip-rule="evenodd" stroke-linejoin="round" stroke-miterlimit="1.4142" version="1.1" viewBox="0 0 24 24" xml:space="preserve" xmlns="http://www.w3.org/2000/svg"><path d="m19 20h-15c-1.11 0-2-.9-2-2v-12c0-1.11.89-2 2-2h6l2 2h7c1.097 0 2 .903 2 2h-17v10l2.14-8h17.07l-2.28 8.5c-.23.87-1.01 1.5-1.93 1.5z" fill="#e57373" style="fill:#42a5f5"/><g transform="matrix(.6453 0 0 .64533 9.5434 7.2458)"><g><path d="m9.8594 2.0009c-1.58 0-2.8594 1.2794-2.8594 2.8594v1.6797h4.2891c.39 0 .71094.57094.71094.96094h-7.1406c-1.58 0-2.8594 1.2794-2.8594 2.8594v3.7812c0 1.58 1.2794 2.8594 2.8594 2.8594h1.1797v-2.6797c0-1.58 1.2716-2.8594 2.8516-2.8594h5.25c1.58 0 2.8594-1.2716 2.8594-2.8516v-3.75c0-1.58-1.2794-2.8594-2.8594-2.8594zm-.71875 1.6094c.4 0 .71875.12094.71875.71094s-.31875.89062-.71875.89062c-.39 0-.71094-.30062-.71094-.89062s.32094-.71094.71094-.71094z" style="fill:#3c78aa"/><path d="m17.959 7v2.6797c0 1.58-1.2696 2.8594-2.8496 2.8594h-5.25c-1.58 0-2.8594 1.2696-2.8594 2.8496v3.75a2.86 2.86 0 0 0 2.8594 2.8613h4.2812a2.86 2.86 0 0 0 2.8594 -2.8613v-1.6797h-4.291c-.39 0-.70898-.56898-.70898-.95898h7.1406a2.86 2.86 0 0 0 2.8594 -2.8613v-3.7793a2.86 2.86 0 0 0 -2.8594 -2.8594zm-9.6387 4.5137-.0039.0039c.01198-.0024.02507-.0016.03711-.0039zm6.5391 7.2754c.39 0 .71094.30062.71094.89062a.71 .71 0 0 1 -.71094 .70898c-.4 0-.71875-.11898-.71875-.70898s.31875-.89062.71875-.89062z" style="fill:#fdd835"/></g></g></svg>

<svg clip-rule="evenodd" stroke-linejoin="round" stroke-miterlimit="1.414" viewBox="0 0 24 24" xml:space="preserve" xmlns="http://www.w3.org/2000/svg"><path d="M19 20H4a2 2 0 0 1-2-2V6c0-1.11.89-2 2-2h6l2 2h7c1.097 0 2 .903 2 2H4v10l2.14-8h17.07l-2.28 8.5c-.23.87-1.01 1.5-1.93 1.5z" fill="#e57373" style="fill:#42a5f5"/><path d="M9.86 2C8.28 2 7 3.28 7 4.86v1.68h4.29c.39 0 .71.57.71.96H4.86C3.28 7.5 2 8.78 2 10.36v3.782C2 15.722 3.28 17 4.86 17h1.18v-2.68c0-1.58 1.27-2.86 2.85-2.86h5.25c1.58 0 2.86-1.27 2.86-2.85V4.86C17 3.28 15.72 2 14.14 2zm-.72 1.61c.4 0 .72.121.72.711s-.32.89-.72.89c-.39 0-.71-.3-.71-.89s.32-.71.71-.71z" style="fill:#3c78aa" transform="matrix(.6453 0 0 .64533 9.543 7.246)"/><path d="M17.959 7v2.68a2.85 2.85 0 0 1-2.85 2.86H9.86A2.85 2.85 0 0 0 7 15.388v3.75A2.86 2.86 0 0 0 9.86 22h4.28A2.86 2.86 0 0 0 17 19.139v-1.68h-4.291c-.39 0-.709-.569-.709-.959h7.14A2.86 2.86 0 0 0 22 13.639v-3.78A2.86 2.86 0 0 0 19.14 7zM8.32 11.514l-.004.004c.012-.003.025-.002.038-.004zm6.54 7.275c.39 0 .71.3.71.89a.71.71 0 0 1-.71.71c-.4 0-.72-.12-.72-.71s.32-.89.72-.89z" style="fill:#fdd835" transform="matrix(.6453 0 0 .64533 9.543 7.246)"/></svg>
